<?xml version="1.0" encoding="UTF-8"?>
<map version="1.4" tiledversion="1.4.3" orientation="orthogonal" renderorder="right-down" width="48" height="72" tilewidth="16" tileheight="16" infinite="0" nextlayerid="7" nextobjectid="31">
 <properties>
  <property name="mcOrderH" type="int" value="4"/>
  <property name="mcOrderW" type="int" value="12"/>
  <property name="mcOrderX" type="float" value="21"/>
  <property name="mcOrderY" type="float" value="63"/>
  <property name="niuPaiOrderWaitX" type="float" value="25"/>
  <property name="niuPaiOrderWaitY" type="float" value="64"/>
  <property name="playerSpawnX" type="int" value="24"/>
  <property name="playerSpawnY" type="int" value="0"/>
  <property name="tunnelEntranceX" type="int" value="48"/>
  <property name="tunnelEntranceY" type="int" value="70"/>
 </properties>
 <tileset firstgid="1" source="XiaoChiBuSprite16.tsx"/>
 <layer id="1" name="Tile Layer 1" width="48" height="72">
  <data encoding="csv">
1,2,3,4,5,6,7,8,1,2,3,4,5,6,7,8,1,2,3,4,5,6,7,8,1,2,3,4,5,6,7,8,1,2,3,4,5,6,7,8,1,2,3,4,5,6,7,8,
65,66,67,68,69,70,71,72,65,66,67,68,69,70,71,72,65,66,67,68,69,70,71,72,65,66,67,68,69,70,71,72,65,66,67,68,69,70,71,72,65,66,67,68,69,70,71,72,
129,130,131,132,133,134,135,136,129,130,131,132,133,134,135,136,129,130,131,132,133,134,135,136,129,130,131,132,133,134,135,136,129,130,131,132,133,134,135,136,129,130,131,132,133,134,135,136,
193,194,195,196,197,198,199,200,193,194,195,196,197,198,199,200,193,194,195,196,197,198,199,200,193,194,195,196,197,198,199,200,193,194,195,196,197,198,199,200,193,194,195,196,197,198,199,200,
257,258,259,260,261,262,263,264,257,258,259,260,261,262,263,264,257,258,259,260,261,262,263,264,257,258,259,260,261,262,263,264,257,258,259,260,261,262,263,264,257,258,259,260,261,262,263,264,
321,322,323,324,325,326,327,328,321,322,323,324,325,326,327,328,321,322,323,324,325,326,327,328,321,322,323,324,325,326,327,328,321,322,323,324,325,326,327,328,321,322,323,324,325,326,327,328,
385,386,387,388,389,390,391,392,385,386,387,388,389,390,391,392,385,386,387,388,389,390,391,392,385,386,387,388,389,390,391,392,385,386,387,388,389,390,391,392,385,386,387,388,389,390,391,392,
449,450,451,452,453,454,455,456,449,450,451,452,453,454,455,456,449,450,451,452,453,454,455,456,449,450,451,452,453,454,455,456,449,450,451,452,453,454,455,456,449,450,451,452,453,454,455,456,
1,2,3,4,5,6,7,8,1,2,3,4,5,6,7,8,1,2,3,4,5,6,7,8,1,2,3,4,5,6,7,8,1,2,3,4,5,6,7,8,1,2,3,4,5,6,7,8,
65,66,67,68,69,70,71,72,65,66,67,68,69,70,71,72,65,66,67,68,69,70,71,72,65,66,67,68,69,70,71,72,65,66,67,68,69,70,71,72,65,66,67,68,69,70,71,72,
129,130,131,132,133,134,135,136,129,130,131,132,133,134,135,136,129,130,131,132,133,134,135,136,129,130,131,132,133,134,135,136,129,130,131,132,133,134,135,136,129,130,131,132,133,134,135,136,
193,194,195,196,197,198,199,200,193,194,195,196,197,198,199,200,193,194,195,196,197,198,199,200,193,194,195,196,197,198,199,200,193,194,195,196,197,198,199,200,193,194,195,196,197,198,199,200,
257,258,259,260,261,262,263,264,257,258,259,260,261,262,263,264,257,258,259,260,261,262,263,264,257,258,259,260,261,262,263,264,257,258,259,260,261,262,263,264,257,258,259,260,261,262,263,264,
321,322,323,324,325,326,327,328,321,322,323,324,325,326,327,328,321,322,323,324,325,326,327,328,321,322,323,324,325,326,327,328,321,322,323,324,325,326,327,328,321,322,323,324,325,326,327,328,
385,386,387,388,389,390,391,392,385,386,387,388,389,390,391,392,385,386,387,388,389,390,391,392,385,386,387,388,389,390,391,392,385,386,387,388,389,390,391,392,385,386,387,388,389,390,391,392,
449,450,451,452,453,454,455,456,449,450,451,452,453,454,455,456,449,450,451,452,453,454,455,456,449,450,451,452,453,454,455,456,449,450,451,452,453,454,455,456,449,450,451,452,453,454,455,456,
1,2,3,4,5,6,7,8,1,2,3,4,5,6,7,8,1,2,3,4,5,6,7,8,1,2,3,4,5,6,7,8,1,2,3,4,5,6,7,8,1,2,3,4,5,6,7,8,
65,66,67,68,69,70,71,72,65,66,67,68,69,70,71,72,65,66,67,68,69,70,71,72,65,66,67,68,69,70,71,72,65,66,67,68,69,70,71,72,65,66,67,68,69,70,71,72,
129,130,131,132,133,134,135,136,129,130,131,132,133,134,135,136,129,130,131,132,133,134,135,136,129,130,131,132,133,134,135,136,129,130,131,132,133,134,135,136,129,130,131,132,133,134,135,136,
193,194,195,196,197,198,199,200,193,194,195,196,197,198,199,200,193,194,195,196,197,198,199,200,193,194,195,196,197,198,199,200,193,194,195,196,197,198,199,200,193,194,195,196,197,198,199,200,
257,258,259,260,261,262,263,264,257,258,259,260,261,262,263,264,257,258,259,260,261,262,263,264,257,258,259,260,261,262,263,264,257,258,259,260,261,262,263,264,257,258,259,260,261,262,263,264,
321,322,323,324,325,326,327,328,321,322,323,324,325,326,327,328,321,322,323,324,325,326,327,328,321,322,323,324,325,326,327,328,321,322,323,324,325,326,327,328,321,322,323,324,325,326,327,328,
385,386,387,388,389,390,391,392,385,386,387,388,389,390,391,392,385,386,387,388,389,390,391,392,385,386,387,388,389,390,391,392,385,386,387,388,389,390,391,392,385,386,387,388,389,390,391,392,
449,450,451,452,453,454,455,456,449,450,451,452,453,454,455,456,449,450,451,452,453,454,455,456,449,450,451,452,453,454,455,456,449,450,451,452,453,454,455,456,449,450,451,452,453,454,455,456,
1,2,3,4,5,6,7,8,1,2,3,4,5,6,7,8,1,2,3,4,5,6,7,8,1,2,3,4,5,6,7,8,1,2,3,4,5,6,7,8,1,2,3,4,5,6,7,8,
65,66,67,68,69,70,71,72,65,66,67,68,69,70,71,72,65,66,67,68,69,70,71,72,65,66,67,68,69,70,71,72,65,66,67,68,69,70,71,72,65,66,67,68,69,70,71,72,
129,130,131,132,133,134,135,136,129,130,131,132,133,134,135,136,129,130,131,132,133,134,135,136,129,130,131,132,133,134,135,136,129,130,131,132,133,134,135,136,129,130,131,132,133,134,135,136,
193,194,195,196,197,198,199,200,193,194,195,196,197,198,199,200,193,194,195,196,197,198,199,200,193,194,195,196,197,198,199,200,193,194,195,196,197,198,199,200,193,194,195,196,197,198,199,200,
257,258,259,260,261,262,263,264,257,258,259,260,261,262,263,264,257,258,259,260,261,262,263,264,257,258,259,260,261,262,263,264,257,258,259,260,261,262,263,264,257,258,259,260,261,262,263,264,
321,322,323,324,325,326,327,328,321,322,323,324,325,326,327,328,321,322,323,324,325,326,327,328,321,322,323,324,325,326,327,328,321,322,323,324,325,326,327,328,321,322,323,324,325,326,327,328,
385,386,387,388,389,390,391,392,385,386,387,388,389,390,391,392,385,386,387,388,389,390,391,392,385,386,387,388,389,390,391,392,385,386,387,388,389,390,391,392,385,386,387,388,389,390,391,392,
449,450,451,452,453,454,455,456,449,450,451,452,453,454,455,456,449,450,451,452,453,454,455,456,449,450,451,452,453,454,455,456,449,450,451,452,453,454,455,456,449,450,451,452,453,454,455,456,
1,2,3,4,5,6,7,8,1,2,3,4,5,6,7,8,1,2,3,4,5,6,7,8,1,2,3,4,5,6,7,8,1,2,3,4,5,6,7,8,1,2,3,4,5,6,7,8,
65,66,67,68,69,70,71,72,65,66,67,68,69,70,71,72,65,66,67,68,69,70,71,72,65,66,67,68,69,70,71,72,65,66,67,68,69,70,71,72,65,66,67,68,69,70,71,72,
129,130,131,132,133,134,135,136,129,130,131,132,133,134,135,136,129,130,131,132,133,134,135,136,129,130,131,132,133,134,135,136,129,130,131,132,133,134,135,136,129,130,131,132,133,134,135,136,
193,194,195,196,197,198,199,200,193,194,195,196,197,198,199,200,193,194,195,196,197,198,199,200,193,194,195,196,197,198,199,200,193,194,195,196,197,198,199,200,193,194,195,196,197,198,199,200,
257,258,259,260,261,262,263,264,257,258,259,260,261,262,263,264,257,258,259,260,261,262,263,264,257,258,259,260,261,262,263,264,257,258,259,260,261,262,263,264,257,258,259,260,261,262,263,264,
321,322,323,324,325,326,327,328,321,322,323,324,325,326,327,328,321,322,323,324,325,326,327,328,321,322,323,324,325,326,327,328,321,322,323,324,325,326,327,328,321,322,323,324,325,326,327,328,
385,386,387,388,389,390,391,392,385,386,387,388,389,390,391,392,385,386,387,388,389,390,391,392,385,386,387,388,389,390,391,392,385,386,387,388,389,390,391,392,385,386,387,388,389,390,391,392,
449,450,451,452,453,454,455,456,449,450,451,452,453,454,455,456,449,450,451,452,453,454,455,456,449,450,451,452,453,454,455,456,449,450,451,452,453,454,455,456,449,450,451,452,453,454,455,456,
1,2,3,4,5,6,7,8,1,2,3,4,5,6,7,8,1,2,3,4,5,6,7,8,1,2,3,4,5,6,7,8,1,2,3,4,5,6,7,8,1,2,3,4,5,6,7,8,
65,66,67,68,69,70,71,72,65,66,67,68,69,70,71,72,65,66,67,68,69,70,71,72,65,66,67,68,69,70,71,72,65,66,67,68,69,70,71,72,65,66,67,68,69,70,71,72,
129,130,131,132,133,134,135,136,129,130,131,132,133,134,135,136,129,130,131,132,133,134,135,136,129,130,131,132,133,134,135,136,129,130,131,132,133,134,135,136,129,130,131,132,133,134,135,136,
193,194,195,196,197,198,199,200,193,194,195,196,197,198,199,200,193,194,195,196,197,198,199,200,193,194,195,196,197,198,199,200,193,194,195,196,197,198,199,200,193,194,195,196,197,198,199,200,
257,258,259,260,261,262,263,264,257,258,259,260,261,262,263,264,257,258,259,260,261,262,263,264,257,258,259,260,261,262,263,264,257,258,259,260,261,262,263,264,257,258,259,260,261,262,263,264,
321,322,323,324,325,326,327,328,321,322,323,324,325,326,327,328,321,322,323,324,325,326,327,328,321,322,323,324,325,326,327,328,321,322,323,324,325,326,327,328,321,322,323,324,325,326,327,328,
385,386,387,388,389,390,391,392,385,386,387,388,389,390,391,392,385,386,387,388,389,390,391,392,385,386,387,388,389,390,391,392,385,386,387,388,389,390,391,392,385,386,387,388,389,390,391,392,
449,450,451,452,453,454,455,456,449,450,451,452,453,454,455,456,449,450,451,452,453,454,455,456,449,450,451,452,453,454,455,456,449,450,451,452,453,454,455,456,449,450,451,452,453,454,455,456,
1,2,3,4,5,6,7,8,1,2,3,4,5,6,7,8,1,2,3,4,5,6,7,8,1,2,3,4,5,6,7,8,1,2,3,4,5,6,7,8,1,2,3,4,5,6,7,8,
65,66,67,68,69,70,71,72,65,66,67,68,69,70,71,72,65,66,67,68,69,70,71,72,65,66,67,68,69,70,71,72,65,66,67,68,69,70,71,72,65,66,67,68,69,70,71,72,
129,130,131,132,133,134,135,136,129,130,131,132,133,134,135,136,129,130,131,132,133,134,135,136,129,130,131,132,133,134,135,136,129,130,131,132,133,134,135,136,129,130,131,132,133,134,135,136,
193,194,195,196,197,198,199,200,193,194,195,196,197,198,199,200,193,194,195,196,197,198,199,200,193,194,195,196,197,198,199,200,193,194,195,196,197,198,199,200,193,194,195,196,197,198,199,200,
257,258,259,260,261,262,263,264,257,258,259,260,261,262,263,264,257,258,259,260,261,262,263,264,257,258,259,260,261,262,263,264,257,258,259,260,261,262,263,264,257,258,259,260,261,262,263,264,
321,322,323,324,325,326,327,328,321,322,323,324,325,326,327,328,321,322,323,324,325,326,327,328,321,322,323,324,325,326,327,328,321,322,323,324,325,326,327,328,321,322,323,324,325,326,327,328,
385,386,387,388,389,390,391,392,385,386,387,388,389,390,391,392,385,386,387,388,389,390,391,392,385,386,387,388,389,390,391,392,385,386,387,388,389,390,391,392,385,386,387,388,389,390,391,392,
449,450,451,452,453,454,455,456,449,450,451,452,453,454,455,456,449,450,451,452,453,454,455,456,449,450,451,452,453,454,455,456,449,450,451,452,453,454,455,456,449,450,451,452,453,454,455,456,
1,2,3,4,5,6,7,8,1,2,3,4,5,6,7,8,1,2,3,4,5,6,7,8,1,2,3,4,5,6,7,8,1,2,3,4,5,6,7,8,1,2,3,4,5,6,7,8,
65,66,67,68,69,70,71,72,65,66,67,68,69,70,71,72,65,66,67,68,69,70,71,72,65,66,67,68,69,70,71,72,65,66,67,68,69,70,71,72,65,66,67,68,69,70,71,72,
129,130,131,132,133,134,135,136,129,130,131,132,133,134,135,136,129,130,131,132,133,134,135,136,129,130,131,132,133,134,135,136,129,130,131,132,133,134,135,136,129,130,131,132,133,134,135,136,
193,194,195,196,197,198,199,200,193,194,195,196,197,198,199,200,193,194,195,196,197,198,199,200,193,194,195,196,197,198,199,200,193,194,195,196,197,198,199,200,193,194,195,196,197,198,199,200,
257,258,259,260,261,262,263,264,257,258,259,260,261,262,263,264,257,258,259,260,261,262,263,264,257,258,259,260,261,262,263,264,257,258,259,260,261,262,263,264,257,258,259,260,261,262,263,264,
321,322,323,324,325,326,327,328,321,322,323,324,325,326,327,328,321,322,323,324,325,326,327,328,321,322,323,324,325,326,327,328,321,322,323,324,325,326,327,328,321,322,323,324,325,326,327,328,
385,386,387,388,389,390,391,392,385,386,387,388,389,390,391,392,385,386,387,388,389,390,391,392,385,386,387,388,389,390,391,392,385,386,387,388,389,390,391,392,385,386,387,388,389,390,391,392,
449,450,451,452,453,454,455,456,449,450,451,452,453,454,455,456,449,450,451,452,453,454,455,456,449,450,451,452,453,454,455,456,449,450,451,452,453,454,455,456,449,450,451,452,453,454,455,456,
1,2,3,4,5,6,7,8,1,2,3,4,5,6,7,8,1,2,3,4,5,6,7,8,1,2,3,4,5,6,7,8,1,2,3,4,5,6,7,8,1,2,3,4,5,6,7,8,
65,66,67,68,69,70,71,72,65,66,67,68,69,70,71,72,65,66,67,68,69,70,71,72,65,66,67,68,69,70,71,72,65,66,67,68,69,70,71,72,65,66,67,68,69,70,71,72,
129,130,131,132,133,134,135,136,129,130,131,132,133,134,135,136,129,130,131,132,133,134,135,136,129,130,131,132,133,134,135,136,129,130,131,132,133,134,135,136,129,130,131,132,133,134,135,136,
193,194,195,196,197,198,199,200,193,194,195,196,197,198,199,200,193,194,195,196,197,198,199,200,193,194,195,196,197,198,199,200,193,194,195,196,197,198,199,200,193,194,195,196,197,198,199,200,
257,258,259,260,261,262,263,264,257,258,259,260,261,262,263,264,257,258,259,260,261,262,263,264,257,258,259,260,261,262,263,264,257,258,259,260,261,262,263,264,257,258,259,260,261,262,263,264,
321,322,323,324,325,326,327,328,321,322,323,324,325,326,327,328,321,322,323,324,325,326,327,328,321,322,323,324,325,326,327,328,321,322,323,324,325,326,327,328,321,322,323,324,325,326,327,328,
385,386,387,388,389,390,391,392,385,386,387,388,389,390,391,392,385,386,387,388,389,390,391,392,385,386,387,388,389,390,391,392,385,386,387,388,389,390,391,392,385,386,387,388,389,390,391,392,
449,450,451,452,453,454,455,456,449,450,451,452,453,454,455,456,449,450,451,452,453,454,455,456,449,450,451,452,453,454,455,456,449,450,451,452,453,454,455,456,449,450,451,452,453,454,455,456
</data>
 </layer>
 <layer id="6" name="Shadow" width="48" height="72">
  <data encoding="csv">
0,0,0,0,0,0,0,0,0,0,0,0,0,0,0,0,0,0,0,0,0,0,0,0,0,0,0,0,0,0,0,0,0,0,0,0,0,0,737,738,0,0,737,738,0,0,0,0,
0,0,0,0,0,0,0,0,0,0,0,0,0,0,0,0,0,0,0,0,0,0,0,0,0,0,0,0,0,0,0,0,0,0,0,0,0,0,737,738,0,0,737,738,0,0,0,0,
0,0,0,0,0,0,0,0,0,0,0,0,0,0,0,0,0,0,0,0,0,0,0,0,0,0,0,0,0,0,0,0,0,0,0,0,0,0,737,738,0,0,737,738,0,0,0,0,
0,0,0,0,0,0,0,0,0,0,0,0,0,0,0,0,0,0,0,0,0,0,0,0,0,0,0,0,0,0,0,0,0,0,0,0,0,0,801,802,0,0,801,802,0,0,0,0,
0,0,0,0,0,0,0,0,0,0,0,0,0,0,0,0,0,0,0,0,0,0,0,0,0,0,0,0,0,0,0,0,0,0,0,0,0,0,0,0,0,0,0,0,0,0,0,0,
0,0,0,0,0,0,0,0,0,0,0,0,0,0,0,0,0,0,0,0,0,0,0,0,0,0,0,0,0,0,0,0,0,0,0,0,0,0,0,0,0,0,0,0,0,0,0,0,
0,0,0,0,0,0,794,794,794,794,794,794,794,794,794,794,794,794,794,794,794,794,794,794,794,794,794,794,794,794,0,0,0,0,0,0,0,0,735,736,736,736,736,736,736,736,736,736,
0,0,0,0,0,0,0,0,0,0,0,0,0,0,0,0,0,0,0,0,0,0,0,0,0,0,0,0,0,0,0,0,0,0,0,0,0,0,799,800,800,800,800,800,800,800,800,800,
0,0,0,0,0,0,0,0,0,0,0,0,0,0,0,0,0,0,0,0,0,0,0,0,0,0,0,0,0,0,0,0,0,0,0,0,0,0,0,0,0,0,0,0,0,0,0,0,
0,0,0,0,0,0,0,0,0,0,0,0,0,0,0,0,0,0,0,0,0,0,0,0,0,0,0,0,0,0,0,0,0,0,0,0,0,0,0,0,0,0,0,0,0,0,0,0,
0,0,0,0,0,733,0,0,0,0,0,0,0,0,0,0,0,0,0,0,0,0,0,0,0,0,0,0,0,0,0,0,0,0,0,0,0,0,0,0,0,0,0,728,0,0,0,0,
0,0,0,0,0,668,0,0,0,0,0,0,0,0,0,0,0,0,0,0,0,0,0,0,0,0,0,0,0,0,0,0,0,0,0,0,0,0,0,0,0,0,0,856,0,0,0,0,
0,0,0,0,0,669,0,0,0,0,0,0,0,0,0,0,0,0,0,0,0,0,0,0,0,0,0,0,0,0,0,0,0,0,0,0,0,0,0,0,0,0,0,856,0,0,0,0,
0,0,0,0,0,796,0,0,0,0,0,0,857,858,858,858,858,858,858,858,858,859,0,0,0,0,857,858,858,858,858,858,858,858,858,859,0,0,0,0,0,0,0,793,0,0,0,0,
0,0,0,0,0,796,0,0,0,0,0,0,790,791,0,0,790,791,0,0,790,791,0,0,0,0,790,791,0,0,790,791,0,0,790,791,0,0,0,0,0,0,0,667,0,0,0,0,
0,0,0,0,0,796,0,0,0,0,0,0,854,855,0,0,854,855,0,0,854,855,0,0,0,0,854,855,0,0,854,855,0,0,854,855,0,0,0,0,0,0,0,667,0,0,0,0,
0,0,0,0,0,796,0,0,0,0,0,0,0,0,0,0,0,0,0,0,0,0,0,0,0,0,0,0,0,0,0,0,0,0,0,0,0,0,0,0,0,0,0,667,0,0,0,0,
0,0,0,0,0,796,0,0,0,0,0,0,0,0,0,0,0,0,0,0,0,0,0,0,0,0,0,0,0,0,0,0,0,0,0,0,0,0,0,0,0,0,0,667,0,0,0,0,
0,0,0,0,0,796,0,0,0,0,0,0,0,0,0,0,0,0,0,0,0,0,0,0,0,0,0,0,0,0,0,0,0,0,0,0,0,0,0,0,0,0,0,667,0,0,0,0,
0,0,0,0,0,796,0,0,0,0,0,0,0,0,0,0,0,0,0,0,0,0,0,0,0,0,0,0,0,0,0,0,0,0,0,0,0,0,0,0,0,0,0,667,0,0,0,0,
0,0,0,0,0,796,0,0,0,0,0,0,0,0,0,0,0,0,0,0,0,0,0,0,0,0,0,0,0,0,0,0,0,0,0,0,0,0,0,0,0,0,0,667,0,0,0,0,
0,0,0,0,0,796,0,0,0,0,0,0,857,858,858,858,858,858,858,858,858,859,0,0,0,0,857,858,858,858,858,858,858,858,858,859,0,0,0,0,0,0,0,667,0,0,0,0,
0,0,0,0,0,796,0,0,0,0,0,0,0,0,0,0,0,0,0,0,0,0,0,0,0,0,790,791,0,0,790,791,0,0,790,791,0,0,0,0,0,0,0,729,0,0,0,0,
0,0,0,0,0,796,0,0,0,0,0,0,854,855,0,0,854,855,0,0,854,855,0,0,0,0,854,855,0,0,854,855,0,0,854,855,0,0,0,0,0,0,0,856,0,0,0,0,
0,0,0,0,0,796,0,0,0,0,0,0,0,0,0,0,0,0,0,0,0,0,0,0,0,0,0,0,0,0,0,0,0,0,0,0,0,0,0,0,0,0,0,856,0,0,0,0,
0,0,0,0,0,796,0,0,0,0,0,0,0,0,0,0,0,0,0,0,0,0,0,0,0,0,0,0,0,0,0,0,0,0,0,0,0,0,0,0,0,0,0,793,0,0,0,0,
0,0,0,0,0,796,0,0,0,0,0,0,0,0,0,0,0,0,0,0,0,0,0,0,0,0,0,0,0,0,0,0,0,0,0,0,0,0,0,0,0,0,0,667,0,0,0,0,
0,0,0,0,0,796,0,0,0,0,0,0,0,0,0,0,0,0,0,0,0,0,0,0,0,0,0,0,0,0,0,0,0,0,0,0,0,0,0,0,0,0,0,667,0,0,0,0,
0,0,0,0,0,732,0,0,0,0,0,0,0,0,0,0,0,0,0,0,0,0,0,0,0,0,0,0,0,0,0,0,0,0,0,0,0,0,0,0,0,0,0,667,0,0,0,0,
0,0,0,0,0,732,0,0,0,0,0,0,857,858,858,858,858,858,858,858,858,859,0,0,0,0,857,858,858,858,858,858,858,858,858,859,0,0,0,0,0,0,0,667,0,0,0,0,
0,0,0,0,0,796,0,0,0,0,0,0,790,791,0,0,790,791,0,0,790,791,0,0,0,0,790,791,0,0,790,791,0,0,790,791,0,0,0,0,0,0,0,667,0,0,0,0,
0,0,0,0,0,796,0,0,0,0,0,0,854,855,0,0,854,855,0,0,854,855,0,0,0,0,854,855,0,0,854,855,0,0,854,855,0,0,0,0,0,0,0,729,0,0,0,0,
0,0,0,0,0,796,0,0,0,0,0,0,0,0,0,0,0,0,0,0,0,0,0,0,0,0,0,0,0,0,0,0,0,0,0,0,0,0,0,0,0,0,0,856,0,0,0,0,
0,0,0,0,0,796,0,0,0,0,0,0,0,0,0,0,0,0,0,0,0,0,0,0,0,0,0,0,0,0,0,0,0,0,0,0,0,0,0,0,0,0,0,856,0,0,0,0,
0,0,0,0,0,796,0,0,0,0,0,0,0,0,0,0,0,0,0,0,0,0,0,0,0,0,0,0,0,0,0,0,0,0,0,0,0,0,0,0,0,0,0,793,0,0,0,0,
0,0,0,0,0,796,0,0,0,0,0,0,0,0,0,0,0,0,0,0,0,0,0,0,0,0,0,0,0,0,0,0,0,0,0,0,0,0,0,0,0,0,0,667,0,0,0,0,
0,0,0,0,0,796,0,0,0,0,0,0,0,0,0,0,0,0,0,0,0,0,0,0,0,0,0,0,0,0,0,0,0,0,0,0,0,0,0,0,0,0,0,667,0,0,0,0,
0,0,0,0,0,796,0,0,0,0,0,0,0,0,0,0,0,0,0,0,0,0,0,0,0,0,0,0,0,0,0,0,0,0,0,0,0,0,0,0,0,0,0,667,0,0,0,0,
0,0,0,0,0,796,0,0,0,0,0,0,0,0,0,0,0,0,0,0,0,0,0,0,0,0,0,0,0,0,0,0,0,0,0,0,0,0,0,0,0,0,0,667,0,0,0,0,
0,0,0,0,0,796,0,0,0,0,0,0,857,858,858,858,858,858,858,858,858,859,0,0,0,0,857,858,858,858,858,858,858,858,858,859,0,0,0,0,0,0,0,729,0,0,0,0,
0,0,0,0,0,796,0,0,0,0,0,0,790,791,0,0,790,791,0,0,790,791,0,0,0,0,790,791,0,0,790,791,0,0,790,791,0,0,0,0,0,0,0,856,0,0,0,0,
0,0,0,0,0,796,0,0,0,0,0,0,854,855,0,0,854,855,0,0,854,855,0,0,0,0,854,855,0,0,854,855,0,0,854,855,0,0,0,0,0,0,0,856,0,0,0,0,
794,794,794,794,794,730,0,0,0,0,0,0,0,0,0,0,0,0,0,0,0,0,0,0,0,0,0,0,0,0,0,0,0,0,0,0,0,0,0,0,0,0,0,793,0,0,0,0,
0,0,0,0,0,0,0,0,0,0,0,0,0,0,0,0,0,0,0,0,0,0,0,0,0,0,0,0,0,0,0,0,0,0,0,0,0,0,0,0,0,0,0,667,0,0,0,0,
0,0,790,791,0,0,790,791,0,0,0,0,0,0,0,0,0,0,0,0,0,0,0,0,0,0,0,0,0,0,0,0,0,0,0,0,0,0,0,0,0,0,0,667,0,0,0,0,
0,0,854,855,0,0,854,855,0,0,0,0,0,0,0,0,0,0,0,0,0,0,0,0,0,0,0,0,0,0,0,0,0,0,0,0,0,0,0,0,0,0,0,667,0,0,0,0,
0,0,0,0,0,0,0,0,0,0,0,0,0,0,0,0,0,0,0,0,0,0,0,0,0,0,0,0,0,0,0,0,0,0,0,0,0,0,0,0,0,0,0,729,0,0,0,0,
0,0,0,0,0,0,0,0,0,0,0,0,857,858,858,858,858,858,858,858,858,859,0,0,0,0,857,858,858,858,858,858,858,858,858,859,0,0,0,0,0,0,0,856,0,0,0,0,
0,0,790,791,0,0,790,791,0,0,0,0,790,791,0,0,790,791,0,0,790,791,0,0,0,0,790,791,0,0,790,791,0,0,790,791,0,0,0,0,0,0,0,856,0,0,0,0,
0,0,854,855,0,0,854,855,0,0,0,0,854,855,0,0,854,855,0,0,854,855,0,0,0,0,854,855,0,0,854,855,0,0,854,855,0,0,0,0,0,0,0,793,0,0,0,0,
0,0,0,0,0,0,0,0,0,0,0,0,0,0,0,0,0,0,0,0,0,0,0,0,0,0,0,0,0,0,0,0,0,0,0,0,0,0,0,0,0,0,0,667,0,0,0,0,
0,0,0,0,0,0,0,0,0,0,0,0,0,0,0,0,0,0,0,0,0,0,0,0,0,0,0,0,0,0,0,0,0,0,0,0,0,0,0,0,0,0,0,667,0,0,0,0,
0,0,790,791,0,0,790,791,0,0,0,0,0,0,0,0,0,0,0,0,0,0,0,0,0,0,0,0,0,0,0,0,0,0,0,0,0,0,0,0,0,0,0,667,0,0,0,0,
0,0,854,855,151,152,854,855,0,0,0,0,0,0,0,0,0,0,0,0,0,0,0,0,0,0,0,0,0,0,0,0,0,0,0,0,0,0,0,0,0,0,0,667,0,0,0,0,
0,0,0,0,215,216,0,0,0,0,0,0,0,0,0,0,0,0,0,0,0,0,0,0,0,0,0,0,0,0,0,0,0,0,0,0,0,0,0,0,0,0,0,729,0,0,0,0,
0,0,0,0,0,0,0,0,0,0,0,0,857,858,858,858,858,858,858,858,858,859,0,0,0,0,857,858,858,858,858,858,858,858,858,859,0,0,0,0,0,0,0,856,0,0,0,0,
0,0,790,791,0,0,790,791,0,0,0,0,790,791,0,0,790,791,0,0,790,791,0,0,0,0,790,791,0,0,790,791,0,0,790,791,0,0,0,0,0,0,0,856,0,0,0,0,
0,0,854,855,0,0,854,855,0,0,0,0,854,855,0,0,854,855,0,0,854,855,0,0,0,0,854,855,0,0,854,855,0,0,854,855,0,0,0,0,0,0,0,793,0,0,0,0,
0,0,0,0,0,0,0,0,0,0,0,0,0,0,0,0,0,0,0,0,0,0,0,0,0,0,0,0,0,0,0,0,0,0,0,0,0,0,0,0,0,0,0,667,667,0,0,0,
0,0,0,0,0,0,0,0,0,0,0,0,0,0,0,0,0,0,0,0,0,0,0,0,0,0,0,0,0,0,0,0,0,0,0,0,0,0,0,0,0,0,0,667,667,0,0,0,
0,0,790,791,0,0,790,791,0,0,0,0,0,0,0,0,0,0,0,0,0,0,0,0,0,0,0,0,0,0,0,0,0,0,0,0,0,0,0,0,0,0,0,667,0,0,0,0,
0,0,854,855,0,0,854,855,0,0,0,0,0,0,0,0,0,0,0,0,0,0,0,0,0,0,0,0,0,0,0,0,0,0,0,0,0,0,0,0,0,0,0,667,736,736,736,736,
0,0,0,0,0,0,0,0,0,0,0,0,0,0,0,0,0,0,0,0,0,0,0,0,0,0,0,0,0,0,0,0,0,0,0,0,0,0,0,0,0,0,0,0,0,0,0,0,
0,0,0,0,0,0,0,0,0,0,0,0,857,858,858,858,858,858,858,858,858,859,0,0,0,0,857,858,858,858,858,858,858,858,858,859,0,0,0,0,0,0,0,0,0,0,0,0,
0,0,790,791,0,0,790,791,0,0,0,0,790,791,0,0,790,791,0,0,790,791,0,0,0,0,790,791,0,0,790,791,0,0,790,791,0,0,0,0,0,0,0,0,0,0,0,0,
0,0,854,855,151,152,854,855,0,0,0,0,854,855,0,0,854,855,0,0,854,855,0,0,0,0,854,855,0,0,854,855,0,0,854,855,0,0,0,0,0,0,0,0,0,0,0,0,
0,0,0,0,215,216,0,0,0,0,0,0,0,0,0,0,0,0,0,0,0,0,0,0,0,0,0,0,0,0,0,0,0,0,0,0,0,0,0,0,0,0,0,0,0,0,0,0,
0,0,0,0,0,0,0,0,0,0,0,0,0,0,0,0,0,0,0,0,0,0,0,0,0,0,0,0,0,0,0,0,0,0,0,0,0,0,0,0,0,0,0,0,0,0,0,0,
0,0,0,0,0,0,0,0,0,0,0,0,0,0,0,0,0,0,0,0,0,0,0,0,0,0,0,0,0,0,0,0,0,0,0,0,0,0,0,0,0,0,0,0,0,0,0,0,
0,0,0,0,0,0,0,0,0,0,0,0,0,0,0,0,0,0,0,0,0,0,0,0,0,0,0,0,0,0,0,0,0,0,0,0,0,0,0,0,0,0,0,0,0,0,0,0,
0,0,0,0,0,0,0,0,0,0,0,0,0,0,0,0,0,0,0,0,0,0,0,0,0,0,0,0,0,0,0,0,0,0,0,0,0,0,0,0,0,0,0,0,0,0,0,0,
0,0,0,0,0,0,0,0,0,0,0,0,0,0,0,0,0,0,0,0,0,0,0,0,0,0,0,0,0,0,0,0,0,0,0,0,0,0,0,0,0,0,0,0,0,0,0,0
</data>
 </layer>
 <layer id="2" name="ConsistentObjects" width="48" height="72">
  <data encoding="csv">
0,0,0,0,0,0,31,32,33,34,35,36,37,38,39,40,41,42,43,44,45,46,47,48,49,50,51,52,53,54,0,0,0,0,0,0,0,0,543,544,0,0,543,544,0,0,0,0,
0,0,0,0,0,0,95,96,97,98,99,100,101,102,103,104,105,106,107,108,109,110,111,112,113,114,115,116,117,118,0,0,0,0,0,0,0,0,543,544,0,0,543,544,0,0,0,0,
0,0,0,0,0,0,159,160,161,162,163,164,165,166,167,168,169,170,171,172,173,174,175,176,177,178,179,180,181,182,0,0,0,0,0,0,0,0,543,544,0,0,543,544,0,0,0,0,
0,0,0,0,0,0,223,224,225,226,227,228,229,230,231,232,233,234,235,236,237,238,239,240,241,242,243,244,245,246,0,0,0,0,0,0,0,0,607,608,0,0,607,608,0,0,0,0,
0,0,0,0,0,0,287,288,289,290,291,292,293,294,295,296,297,298,299,300,301,302,303,304,305,306,307,308,309,310,0,0,0,0,0,0,0,0,0,0,0,0,0,0,0,0,0,0,
0,0,0,0,0,0,351,352,353,354,355,356,357,358,359,360,361,362,363,364,365,366,367,368,369,370,371,372,373,374,0,0,0,0,0,0,0,0,0,0,0,0,0,0,0,0,0,0,
0,0,0,0,0,0,0,0,0,0,0,0,0,0,0,0,0,0,0,0,0,0,0,0,0,0,0,0,0,0,0,0,0,0,0,0,0,0,541,542,542,542,542,542,542,542,542,542,
0,0,0,0,0,0,0,0,0,0,0,0,0,0,0,0,0,0,0,0,0,0,0,0,0,0,0,0,0,0,0,0,0,0,0,0,0,0,605,606,606,606,606,606,606,606,606,606,
0,0,0,0,0,0,0,0,0,0,0,0,0,0,0,0,0,0,0,0,0,0,0,0,0,0,0,0,0,0,0,0,0,0,0,0,0,0,0,0,0,0,0,0,0,0,0,0,
0,0,0,0,0,0,0,0,0,0,0,0,0,0,0,0,0,0,0,0,0,0,0,0,0,0,0,0,0,0,0,0,0,0,0,0,0,0,0,0,0,0,0,0,0,0,0,0,
59,60,61,62,63,64,0,0,0,0,0,0,403,404,0,0,403,404,0,0,403,404,0,0,0,0,403,404,0,0,403,404,0,0,403,404,0,0,0,0,0,0,499,500,501,502,503,504,
123,124,125,126,127,128,0,0,0,0,0,0,467,468,0,0,467,468,0,0,467,468,0,0,0,0,467,468,0,0,467,468,0,0,467,468,0,0,0,0,0,0,563,564,565,566,567,568,
187,188,189,190,191,192,0,0,0,0,0,0,531,532,19,19,530,532,19,19,530,533,0,0,0,0,531,532,19,19,530,532,19,19,530,533,0,0,0,0,0,0,627,628,629,630,631,632,
251,252,253,254,255,256,0,0,0,0,0,0,723,724,83,83,722,724,83,83,722,725,0,0,0,0,723,724,83,83,722,724,83,83,722,725,0,0,0,0,0,0,691,692,693,694,695,696,
315,316,317,318,319,320,0,0,0,0,0,0,787,788,0,0,786,788,0,0,786,789,0,0,0,0,787,788,0,0,786,788,0,0,786,789,0,0,0,0,0,0,755,756,757,758,759,760,
379,380,381,382,383,384,0,0,0,0,0,0,851,852,0,0,850,852,0,0,850,853,0,0,0,0,851,852,0,0,850,852,0,0,850,853,0,0,0,0,0,0,819,820,821,822,823,824,
443,444,445,446,447,448,0,0,0,0,0,0,0,0,0,0,0,0,0,0,0,0,0,0,0,0,0,0,0,0,0,0,0,0,0,0,0,0,0,0,0,0,883,884,885,886,887,888,
507,508,509,510,511,512,0,0,0,0,0,0,0,0,0,0,0,0,0,0,0,0,0,0,0,0,0,0,0,0,0,0,0,0,0,0,0,0,0,0,0,0,947,948,949,950,951,952,
571,572,573,574,575,576,0,0,0,0,0,0,403,404,0,0,403,404,0,0,403,404,0,0,0,0,403,404,0,0,403,404,0,0,403,404,0,0,0,0,0,0,1011,1012,1013,1014,1015,1016,
635,636,637,638,639,640,0,0,0,0,0,0,467,468,0,0,467,468,0,0,467,468,0,0,0,0,467,468,0,0,467,468,0,0,467,468,0,0,0,0,0,0,1075,1076,1077,1078,1079,1080,
699,700,701,702,703,704,0,0,0,0,0,0,531,532,19,19,530,532,19,19,530,533,0,0,0,0,531,532,19,19,530,532,19,19,530,533,0,0,0,0,0,0,1139,1140,1141,1142,1143,1144,
763,764,765,766,767,768,0,0,0,0,0,0,723,724,83,83,722,724,83,83,722,725,0,0,0,0,723,724,83,83,722,724,83,83,722,725,0,0,0,0,0,0,1203,1204,1205,1206,1207,1208,
827,828,829,830,831,832,0,0,0,0,0,0,787,788,0,0,786,788,0,0,786,789,0,0,0,0,787,788,0,0,786,788,0,0,786,789,0,0,0,0,0,0,1267,1268,1269,1270,1271,1272,
891,892,893,894,895,896,0,0,0,0,0,0,851,852,0,0,850,852,0,0,850,853,0,0,0,0,851,852,0,0,850,852,0,0,850,853,0,0,0,0,0,0,1331,1332,1333,1334,1335,1336,
955,956,957,958,959,960,0,0,0,0,0,0,0,0,0,0,0,0,0,0,0,0,0,0,0,0,0,0,0,0,0,0,0,0,0,0,0,0,0,0,0,0,1395,1396,1397,1398,1399,1400,
1019,1020,1021,1022,1023,1024,0,0,0,0,0,0,0,0,0,0,0,0,0,0,0,0,0,0,0,0,0,0,0,0,0,0,0,0,0,0,0,0,0,0,0,0,1459,1460,1461,1462,1463,1464,
1083,1084,1085,1086,1087,1088,0,0,0,0,0,2495,403,404,0,0,403,404,0,0,403,404,0,0,0,0,403,404,0,0,403,404,0,0,403,404,0,0,0,0,0,0,1523,1524,1525,1526,1527,1528,
1147,1148,1149,1150,1151,1152,0,0,0,0,0,0,467,468,0,0,467,468,0,0,467,468,0,0,0,0,467,468,0,0,467,468,0,0,467,468,0,0,0,0,0,0,1587,1588,1589,1590,1591,1592,
1211,1212,1213,1214,1215,1216,0,0,0,0,0,0,531,532,19,19,530,532,19,19,530,533,0,0,0,0,531,532,19,19,530,532,19,19,530,533,0,0,0,0,0,0,1651,1652,1653,1654,1655,1656,
1275,1276,1277,1278,1279,1280,0,0,0,0,0,0,723,724,83,83,722,724,83,83,722,725,0,0,0,0,723,724,83,83,722,724,83,83,722,725,0,0,0,0,0,0,1715,1716,1717,1718,1719,1720,
1339,1340,1341,1342,1343,1344,0,0,0,0,0,0,787,788,0,0,786,788,0,0,786,789,0,0,0,0,787,788,0,0,786,788,0,0,786,789,0,0,0,0,0,0,1779,1780,1781,1782,1783,1784,
1403,1404,1405,1406,1407,1408,0,0,0,0,0,0,851,852,0,0,850,852,0,0,850,853,0,0,0,0,851,852,0,0,850,852,0,0,850,853,0,0,0,0,0,0,1843,1844,1845,1846,1847,1848,
1467,1468,1469,1470,1471,1472,0,0,0,0,0,0,0,0,0,0,0,0,0,0,0,0,0,0,0,0,0,0,0,0,0,0,0,0,0,0,0,0,0,0,0,0,1907,1908,1909,1910,1911,1912,
1531,1532,1533,1534,1535,1536,0,0,0,0,0,0,0,0,0,0,0,0,0,0,0,0,0,0,0,0,0,0,0,0,0,0,0,0,0,0,0,0,0,0,0,0,1971,1972,1973,1974,1975,1976,
1595,1596,1597,1598,1599,1600,0,0,0,0,0,0,0,0,0,0,0,0,0,0,0,0,0,0,0,0,0,0,0,0,0,0,0,0,0,0,0,0,0,0,0,0,2035,2036,2037,2038,2039,2040,
1659,1660,1661,1662,1663,1664,0,0,0,0,0,0,0,0,0,0,0,0,0,0,0,0,0,0,0,0,0,0,0,0,0,0,0,0,0,0,0,0,0,0,0,0,2099,2100,2101,2102,2103,2104,
1723,1724,1725,1726,1727,1728,0,0,0,0,0,0,403,404,0,0,403,404,0,0,403,404,0,0,0,0,403,404,0,0,403,404,0,0,403,404,0,0,0,0,0,0,2163,2164,2165,2166,2167,2168,
1787,1788,1789,1790,1791,1792,0,0,0,0,0,0,467,468,0,0,467,468,0,0,467,468,0,0,0,0,467,468,0,0,467,468,0,0,467,468,0,0,0,0,0,0,2227,2228,2229,2230,2231,2232,
1851,1852,1853,1854,1855,1856,0,0,0,0,0,0,531,532,19,19,530,532,19,19,530,533,0,0,0,0,531,532,19,19,530,532,19,19,530,533,0,0,0,0,0,0,2291,2292,2293,2294,2295,2296,
1915,1916,1917,1918,1919,1920,0,0,0,0,0,0,723,724,83,83,722,724,83,83,722,725,0,0,0,0,723,724,83,83,722,724,83,83,722,725,0,0,0,0,0,0,2355,2356,2357,2358,2359,2360,
1979,1980,1981,1982,1983,1984,0,0,0,0,0,0,787,788,0,0,786,788,0,0,786,789,0,0,0,0,787,788,0,0,786,788,0,0,786,789,0,0,0,0,0,0,2419,2420,2421,2422,2423,2424,
2043,2044,2045,2046,2047,2048,0,0,0,0,0,0,851,852,0,0,850,852,0,0,850,853,0,0,0,0,851,852,0,0,850,852,0,0,850,853,0,0,0,0,0,0,2483,2484,2485,2486,2487,2488,
0,0,0,0,0,0,0,0,0,0,0,0,0,0,0,0,0,0,0,0,0,0,0,0,0,0,0,0,0,0,0,0,0,0,0,0,0,0,0,0,0,0,2547,2548,2549,2550,2551,2552,
0,0,537,538,0,0,535,536,0,0,0,0,0,0,0,0,0,0,0,0,0,0,0,0,0,0,0,0,0,0,0,0,0,0,0,0,0,0,0,0,0,0,2611,2612,2613,2614,2615,2616,
0,0,601,602,21,22,599,600,0,0,0,0,403,404,0,0,403,404,0,0,403,404,0,0,0,0,403,404,0,0,403,404,0,0,403,404,0,0,0,0,0,0,2675,2676,2677,2678,2679,2680,
0,0,665,666,85,86,663,664,0,0,0,0,467,468,0,0,467,468,0,0,467,468,0,0,0,0,467,468,0,0,467,468,0,0,467,468,0,0,0,0,0,0,2739,2740,2741,2742,2743,2744,
0,0,0,0,85,86,0,0,0,0,0,0,531,532,19,19,530,532,19,19,530,533,0,0,0,0,531,532,19,19,530,532,19,19,530,533,0,0,0,0,0,0,2803,2804,2805,2806,2807,2808,
0,0,537,538,85,86,535,536,0,0,0,0,723,724,83,83,722,724,83,83,722,725,0,0,0,0,723,724,83,83,722,724,83,83,722,725,0,0,0,0,0,0,2867,2868,2869,2870,2871,2872,
0,0,601,602,85,86,599,600,0,0,0,0,787,788,0,0,786,788,0,0,786,789,0,0,0,0,787,788,0,0,786,788,0,0,786,789,0,0,0,0,0,0,2931,2932,2933,2934,2935,2936,
0,0,665,666,85,86,663,664,0,0,0,0,851,852,0,0,850,852,0,0,850,853,0,0,0,0,851,852,0,0,850,852,0,0,850,853,0,0,0,0,0,0,2995,2996,2997,2998,2999,3000,
0,0,0,0,85,86,0,0,0,0,0,0,0,0,0,0,0,0,0,0,0,0,0,0,0,0,0,0,0,0,0,0,0,0,0,0,0,0,0,0,0,0,3059,3060,3061,3062,3063,3064,
0,0,537,538,85,86,535,536,0,0,0,0,0,0,0,0,0,0,0,0,0,0,0,0,0,0,0,0,0,0,0,0,0,0,0,0,0,0,0,0,0,0,3123,3124,3125,3126,3127,3128,
0,0,601,602,85,86,599,600,0,0,0,0,403,404,0,0,403,404,0,0,403,404,0,0,0,0,403,404,0,0,403,404,0,0,403,404,0,0,0,0,0,0,3187,3188,3189,3190,3191,3192,
0,0,665,666,149,150,663,664,0,0,0,0,467,468,0,0,467,468,0,0,467,468,0,0,0,0,467,468,0,0,467,468,0,0,467,468,0,0,0,0,0,0,3251,3252,3253,3254,3255,3256,
0,0,0,0,0,0,0,0,0,0,0,0,531,532,19,19,530,532,19,19,530,533,0,0,0,0,531,532,19,19,530,532,19,19,530,533,0,0,0,0,0,0,3315,3316,3317,3318,3319,3320,
0,0,537,538,0,0,535,536,0,0,0,0,723,724,83,83,722,724,83,83,722,725,0,0,0,0,723,724,83,83,722,724,83,83,722,725,0,0,0,0,0,0,3379,3380,3381,3382,3383,3384,
0,0,601,602,21,22,599,600,0,0,0,0,787,788,0,0,786,788,0,0,786,789,0,0,0,0,787,788,0,0,786,788,0,0,786,789,0,0,0,0,0,0,3443,3444,3445,3446,3447,3448,
0,0,665,666,85,86,663,664,0,0,0,0,851,852,0,0,850,852,0,0,850,853,0,0,0,0,851,852,0,0,850,852,0,0,850,853,0,0,0,0,0,0,3507,3508,3509,3510,3511,3512,
0,0,0,0,85,86,0,0,0,0,0,0,0,0,0,0,0,0,0,0,0,0,0,0,0,0,0,0,0,0,0,0,0,0,0,0,0,0,0,0,0,0,3571,3572,3573,3574,3575,3576,
0,0,537,538,85,86,535,536,0,0,0,0,0,0,0,0,0,0,0,0,0,0,0,0,0,0,0,0,0,0,0,0,0,0,0,0,0,0,0,0,0,0,3635,3636,3637,3638,3639,3640,
0,0,601,602,85,86,599,600,0,0,0,0,403,404,0,0,403,404,0,0,403,404,0,0,0,0,403,404,0,0,403,404,0,0,403,404,0,0,0,0,0,0,3699,3700,3701,3702,3703,3704,
0,0,665,666,85,86,663,664,0,0,0,0,467,468,0,0,467,468,0,0,467,468,0,0,0,0,467,468,0,0,467,468,0,0,467,468,0,0,0,0,0,0,3763,3764,3765,3766,3767,3768,
0,0,0,0,85,86,0,0,0,0,0,0,531,532,19,19,530,532,19,19,530,533,0,0,0,0,531,532,19,19,530,532,19,19,530,533,0,0,0,0,0,0,3827,3828,3829,3830,3831,3832,
0,0,537,538,85,86,535,536,0,0,0,0,723,724,83,83,722,724,83,83,722,725,0,0,0,0,723,724,83,83,722,724,83,83,722,725,0,0,0,0,0,0,3891,3892,3893,3894,3895,3896,
0,0,601,602,85,86,599,600,0,0,0,0,787,788,0,0,786,788,0,0,786,789,0,0,0,0,787,788,0,0,786,788,0,0,786,789,0,0,0,0,0,0,3955,3956,3957,3958,3959,3960,
0,0,665,666,149,150,663,664,0,0,0,0,851,852,0,0,850,852,0,0,850,853,0,0,0,0,851,852,0,0,850,852,0,0,850,853,0,0,0,0,0,0,4019,4020,4021,4022,4023,4024,
0,0,0,0,0,0,0,0,0,0,0,0,0,0,0,0,0,0,0,0,0,0,0,0,0,0,0,0,0,0,0,0,0,0,0,0,0,0,0,0,0,0,0,0,0,0,0,0,
0,0,0,0,0,0,0,0,0,0,0,0,0,0,0,0,0,0,0,0,0,0,0,0,0,0,0,0,0,0,0,0,0,0,0,0,0,0,0,0,0,0,0,0,0,0,0,0,
0,0,0,0,0,0,0,0,0,0,0,0,0,0,0,0,0,0,0,0,0,0,0,0,0,0,0,0,0,0,0,0,0,0,0,0,0,0,0,0,0,0,0,0,0,0,0,0,
0,0,0,0,0,0,0,0,0,0,0,0,0,0,0,0,0,0,0,0,0,0,0,0,0,0,0,0,0,0,0,0,0,0,0,0,0,0,0,0,0,0,0,0,0,0,0,0,
0,0,0,0,0,0,0,0,0,0,0,0,0,0,0,0,0,0,0,0,0,0,0,0,0,0,0,0,0,0,0,0,0,0,0,0,0,0,0,0,0,0,0,0,0,0,0,0,
0,0,0,0,0,0,0,0,0,0,0,0,0,0,0,0,0,0,0,0,0,0,0,0,0,0,0,0,0,0,0,0,0,0,0,0,0,0,0,0,0,0,0,0,0,0,0,0
</data>
 </layer>
 <objectgroup id="3" name="ConsistentCollider">
  <object id="1" x="96" y="0" width="384" height="96"/>
  <object id="2" x="608" y="96" width="160" height="32"/>
  <object id="3" x="672" y="0" width="32" height="64"/>
  <object id="4" x="608" y="0" width="32" height="64"/>
  <object id="5" x="0" y="160" width="96" height="512"/>
  <object id="6" x="192" y="192" width="160" height="32"/>
  <object id="7" x="416" y="192" width="160" height="32"/>
  <object id="8" x="416" y="320" width="160" height="32"/>
  <object id="9" x="192" y="320" width="160" height="32"/>
  <object id="10" x="192" y="448" width="160" height="32"/>
  <object id="11" x="416" y="448" width="160" height="32"/>
  <object id="12" x="416" y="608" width="160" height="32"/>
  <object id="13" x="192" y="608" width="160" height="32"/>
  <object id="14" x="416" y="736" width="160" height="32"/>
  <object id="15" x="192" y="736" width="160" height="32"/>
  <object id="16" x="416" y="864" width="160" height="32"/>
  <object id="17" x="192" y="864" width="160" height="32"/>
  <object id="18" x="192" y="992" width="160" height="32"/>
  <object id="19" x="416" y="992" width="160" height="32"/>
  <object id="22" x="64" y="704" width="32" height="160"/>
  <object id="23" x="64" y="896" width="32" height="160"/>
  <object id="24" x="672" y="160" width="96" height="896"/>
 </objectgroup>
 <objectgroup id="5" name="InitialObstacle">
  <object id="25" x="672" y="64" width="32" height="32"/>
 </objectgroup>
</map>
