<?xml version="1.0" encoding="UTF-8"?>
<map version="1.4" tiledversion="1.4.3" orientation="orthogonal" renderorder="right-down" width="24" height="36" tilewidth="32" tileheight="32" infinite="0" nextlayerid="4" nextobjectid="24">
 <properties>
  <property name="BlackDogSpawnX" type="int" value="0"/>
  <property name="BlackDogSpawnY" type="int" value="0"/>
  <property name="mcOrderH" type="int" value="2"/>
  <property name="mcOrderW" type="int" value="6"/>
  <property name="mcOrderX" type="float" value="10.5"/>
  <property name="mcOrderY" type="float" value="31.5"/>
  <property name="playerSpawnX" type="int" value="12"/>
  <property name="playerSpawnY" type="int" value="0"/>
  <property name="tunnelEntranceX" type="int" value="24"/>
  <property name="tunnelEntranceY" type="int" value="35"/>
 </properties>
 <tileset firstgid="1" source="XiaoChiBu_Tileset_Beta.tsx"/>
 <layer id="1" name="Background" width="24" height="36">
  <data encoding="csv">
1,1,1,1,1,1,1,1,1,1,1,1,1,1,1,1,1,1,1,1,1,1,1,1,
1,1,1,1,1,1,1,1,1,1,1,1,1,1,1,1,1,1,1,1,1,1,1,1,
1,1,1,1,1,1,1,1,1,1,1,1,1,1,1,1,1,1,1,1,1,1,1,1,
1,1,1,1,1,1,1,1,1,1,1,1,1,1,1,1,1,1,1,1,1,1,1,1,
1,1,1,1,1,1,1,1,1,1,1,1,1,1,1,1,1,1,1,1,1,1,1,1,
1,1,1,1,1,1,1,1,1,1,1,1,1,1,1,1,1,1,1,1,1,1,1,1,
1,1,1,1,1,1,1,1,1,1,1,1,1,1,1,1,1,1,1,1,1,1,1,1,
1,1,1,1,1,1,1,1,1,1,1,1,1,1,1,1,1,1,1,1,1,1,1,1,
1,1,1,1,1,1,1,1,1,1,1,1,1,1,1,1,1,1,1,1,1,1,1,1,
1,1,1,1,1,1,1,1,1,1,1,1,1,1,1,1,1,1,1,1,1,1,1,1,
1,1,1,1,1,1,1,1,1,1,1,1,1,1,1,1,1,1,1,1,1,1,1,1,
1,1,1,1,1,1,1,1,1,1,1,1,1,1,1,1,1,1,1,1,1,1,1,1,
1,1,1,1,1,1,1,1,1,1,1,1,1,1,1,1,1,1,1,1,1,1,1,1,
1,1,1,1,1,1,1,1,1,1,1,1,1,1,1,1,1,1,1,1,1,1,1,1,
1,1,1,1,1,1,1,1,1,1,1,1,1,1,1,1,1,1,1,1,1,1,1,1,
1,1,1,1,1,1,1,1,1,1,1,1,1,1,1,1,1,1,1,1,1,1,1,1,
1,1,1,1,1,1,1,1,1,1,1,1,1,1,1,1,1,1,1,1,1,1,1,1,
1,1,1,1,1,1,1,1,1,1,1,1,1,1,1,1,1,1,1,1,1,1,1,1,
1,1,1,1,1,1,1,1,1,1,1,1,1,1,1,1,1,1,1,1,1,1,1,1,
1,1,1,1,1,1,1,1,1,1,1,1,1,1,1,1,1,1,1,1,1,1,1,1,
1,1,1,1,1,1,1,1,1,1,1,1,1,1,1,1,1,1,1,1,1,1,1,1,
1,1,1,1,1,1,1,1,1,1,1,1,1,1,1,1,1,1,1,1,1,1,1,1,
1,1,1,1,1,1,1,1,1,1,1,1,1,1,1,1,1,1,1,1,1,1,1,1,
1,1,1,1,1,1,1,1,1,1,1,1,1,1,1,1,1,1,1,1,1,1,1,1,
1,1,1,1,1,1,1,1,1,1,1,1,1,1,1,1,1,1,1,1,1,1,1,1,
1,1,1,1,1,1,1,1,1,1,1,1,1,1,1,1,1,1,1,1,1,1,1,1,
1,1,1,1,1,1,1,1,1,1,1,1,1,1,1,1,1,1,1,1,1,1,1,1,
1,1,1,1,1,1,1,1,1,1,1,1,1,1,1,1,1,1,1,1,1,1,1,1,
1,1,1,1,1,1,1,1,1,1,1,1,1,1,1,1,1,1,1,1,1,1,1,1,
1,1,1,1,1,1,1,1,1,1,1,1,1,1,1,1,1,1,1,1,1,1,1,1,
1,1,1,1,1,1,1,1,1,1,1,1,1,1,1,1,1,1,1,1,1,1,1,1,
1,1,1,1,1,1,1,1,1,1,1,1,1,1,1,1,1,1,1,1,1,1,1,1,
1,1,1,1,1,1,1,1,1,1,1,1,1,1,1,1,1,1,1,1,1,1,1,1,
1,1,1,1,1,1,1,1,1,1,1,1,1,1,1,1,1,1,1,1,1,1,1,1,
1,1,1,1,1,1,1,1,1,1,1,1,1,1,1,1,1,1,1,1,1,1,1,1,
1,1,1,1,1,1,1,1,1,1,1,1,1,1,1,1,1,1,1,1,1,1,1,1
</data>
 </layer>
 <layer id="2" name="ConsistentObjects" width="24" height="36">
  <data encoding="csv">
0,0,0,2,2,2,2,2,2,2,2,2,2,2,2,0,0,0,0,4,0,4,0,0,
0,0,0,2,2,2,2,2,2,2,2,2,2,2,2,0,0,0,0,4,0,4,0,0,
0,0,0,2,2,2,2,2,2,2,2,2,2,2,2,0,0,0,0,0,0,0,0,0,
0,0,0,0,0,0,0,0,0,0,0,0,0,0,0,0,0,0,0,4,4,4,4,4,
0,0,0,0,0,0,0,0,0,0,0,0,0,0,0,0,0,0,0,0,0,0,0,0,
6,6,6,0,0,0,0,0,0,0,0,0,0,0,0,0,0,0,0,0,0,6,6,6,
6,6,6,0,0,0,5,5,5,5,5,0,0,5,5,5,5,5,0,0,0,6,6,6,
6,6,6,0,0,0,0,0,0,0,0,0,0,0,0,0,0,0,0,0,0,6,6,6,
6,6,6,0,0,0,0,0,0,0,0,0,0,0,0,0,0,0,0,0,0,6,6,6,
6,6,6,0,0,0,0,0,0,0,0,0,0,0,0,0,0,0,0,0,0,6,6,6,
6,6,6,0,0,0,5,5,5,5,5,0,0,5,5,5,5,5,0,0,0,6,6,6,
6,6,6,0,0,0,0,0,0,0,0,0,0,0,0,0,0,0,0,0,0,6,6,6,
6,6,6,0,0,0,0,0,0,0,0,0,0,0,0,0,0,0,0,0,0,6,6,6,
6,6,6,0,0,0,0,0,0,0,0,0,0,0,0,0,0,0,0,0,0,6,6,6,
6,6,6,0,0,0,5,5,5,5,5,0,0,5,5,5,5,5,0,0,0,6,6,6,
6,6,6,0,0,0,0,0,0,0,0,0,0,0,0,0,0,0,0,0,0,6,6,6,
6,6,6,0,0,0,0,0,0,0,0,0,0,0,0,0,0,0,0,0,0,6,6,6,
6,6,6,0,0,0,0,0,0,0,0,0,0,0,0,0,0,0,0,0,0,6,6,6,
6,6,6,0,0,0,0,0,0,0,0,0,0,0,0,0,0,0,0,0,0,6,6,6,
6,6,6,0,0,0,5,5,5,5,5,0,0,5,5,5,5,5,0,0,0,6,6,6,
6,6,6,0,0,0,0,0,0,0,0,0,0,0,0,0,0,0,0,0,0,6,6,6,
0,0,0,0,0,0,0,0,0,0,0,0,0,0,0,0,0,0,0,0,0,6,6,6,
0,0,5,0,0,0,0,0,0,0,0,0,0,0,0,0,0,0,0,0,0,6,6,6,
0,0,5,0,0,0,5,5,5,5,5,0,0,5,5,5,5,5,0,0,0,6,6,6,
0,0,5,0,0,0,0,0,0,0,0,0,0,0,0,0,0,0,0,0,0,6,6,6,
0,0,5,0,0,0,0,0,0,0,0,0,0,0,0,0,0,0,0,0,0,6,6,6,
0,0,5,0,0,0,0,0,0,0,0,0,0,0,0,0,0,0,0,0,0,6,6,6,
0,0,0,0,0,0,5,5,5,5,5,0,0,5,5,5,5,5,0,0,0,6,6,6,
0,0,5,0,0,0,0,0,0,0,0,0,0,0,0,0,0,0,0,0,0,6,6,6,
0,0,5,0,0,0,0,0,0,0,0,0,0,0,0,0,0,0,0,0,0,6,6,6,
0,0,5,0,0,0,0,0,0,0,0,0,0,0,0,0,0,0,0,0,0,6,6,6,
0,0,5,0,0,0,5,5,5,5,5,0,0,5,5,5,5,5,0,0,0,6,6,6,
0,0,5,0,0,0,0,0,0,0,0,0,0,0,0,0,0,0,0,0,0,6,6,6,
0,0,0,0,0,0,0,0,0,0,0,0,0,0,0,0,0,0,0,0,0,6,6,6,
0,0,0,0,0,0,0,0,0,0,0,0,0,0,0,0,0,0,0,0,0,0,0,0,
0,0,0,0,0,0,0,0,0,0,0,0,0,0,0,0,0,0,0,0,0,0,0,0
</data>
 </layer>
 <objectgroup id="3" name="ConsistentCollider">
  <object id="1" x="0" y="160" width="96" height="512"/>
  <object id="2" x="672" y="160" width="96" height="928"/>
  <object id="3" x="96" y="0" width="384" height="96"/>
  <object id="4" x="192" y="192" width="160" height="32"/>
  <object id="5" x="416" y="192" width="160" height="32"/>
  <object id="6" x="416" y="320" width="160" height="32"/>
  <object id="7" x="192" y="320" width="160" height="32"/>
  <object id="8" x="192" y="448" width="160" height="32"/>
  <object id="9" x="416" y="448" width="160" height="32"/>
  <object id="10" x="192" y="608" width="160" height="32"/>
  <object id="11" x="416" y="608" width="160" height="32"/>
  <object id="12" x="416" y="736" width="160" height="32"/>
  <object id="13" x="416" y="864" width="160" height="32"/>
  <object id="14" x="416" y="992" width="160" height="32"/>
  <object id="15" x="192" y="736" width="160" height="32"/>
  <object id="16" x="192" y="864" width="160" height="32"/>
  <object id="17" x="192" y="992" width="160" height="32"/>
  <object id="18" x="64" y="704" width="32" height="160"/>
  <object id="19" x="64" y="896" width="32" height="160"/>
  <object id="20" x="608" y="0" width="32" height="64"/>
  <object id="21" x="672" y="0" width="32" height="64"/>
  <object id="22" x="608" y="96" width="160" height="32"/>
  <object id="23" x="992" y="160"/>
 </objectgroup>
</map>
