<?xml version="1.0" encoding="UTF-8"?>
<map version="1.4" tiledversion="1.4.3" orientation="orthogonal" renderorder="right-down" width="48" height="12" tilewidth="16" tileheight="16" infinite="0" nextlayerid="5" nextobjectid="26">
 <properties>
  <property name="entranceX" type="float" value="2"/>
  <property name="entranceY" type="float" value="7"/>
  <property name="exitX" type="int" value="48"/>
  <property name="exitY" type="float" value="7"/>
 </properties>
 <tileset firstgid="1" source="XiaoChiBuSprite16.tsx"/>
 <layer id="1" name="Floor" width="48" height="12">
  <data encoding="csv">
1025,1026,1027,1028,1029,1030,1031,1032,1033,1034,1035,1036,1037,1038,1039,1040,1041,1042,1043,1044,1045,1046,1047,1048,1049,1050,1051,1052,1053,1054,1055,1056,1025,1026,1027,1028,1029,1030,1031,1032,1033,1034,1035,1036,1037,1038,1039,1040,
1089,1090,1091,1092,1093,1094,1095,1096,1097,1098,1099,1100,1101,1102,1103,1104,1105,1106,1107,1108,1109,1110,1111,1112,1113,1114,1115,1116,1117,1118,1119,1120,1089,1090,1091,1092,1093,1094,1095,1096,1097,1098,1099,1100,1101,1102,1103,1104,
1153,1154,1155,1156,1157,1158,1159,1160,1161,1162,1163,1164,1165,1166,1167,1168,1169,1170,1171,1172,1173,1174,1175,1176,1177,1178,1179,1180,1181,1182,1183,1184,1153,1154,1155,1156,1157,1158,1159,1160,1161,1162,1163,1164,1165,1166,1167,1168,
1217,1218,1219,1220,1221,1222,1223,1224,1225,1226,1227,1228,1229,1230,1231,1232,1233,1234,1235,1236,1237,1238,1239,1240,1241,1242,1243,1244,1245,1246,1247,1248,1217,1218,1219,1220,1221,1222,1223,1224,1225,1226,1227,1228,1229,1230,1231,1232,
1281,1282,1283,1284,1285,1286,1287,1288,1289,1290,1291,1292,1293,1294,1295,1296,1297,1298,1299,1300,1301,1302,1303,1304,1305,1306,1307,1308,1309,1310,1311,1312,1281,1282,1283,1284,1285,1286,1287,1288,1289,1290,1291,1292,1293,1294,1295,1296,
1345,1346,1347,1348,1349,1350,1351,1352,1353,1354,1355,1356,1357,1358,1359,1360,1361,1362,1363,1364,1365,1366,1367,1368,1369,1370,1371,1372,1373,1374,1375,1376,1345,1346,1347,1348,1349,1350,1351,1352,1353,1354,1355,1356,1357,1358,1359,1360,
1409,1410,1411,1412,1413,1414,1415,1416,1417,1418,1419,1420,1421,1422,1423,1424,1425,1426,1427,1428,1429,1430,1431,1432,1433,1434,1435,1436,1437,1438,1439,1440,1409,1410,1411,1412,1413,1414,1415,1416,1417,1418,1419,1420,1421,1422,1423,1424,
1473,1474,1475,1476,1477,1478,1479,1480,1481,1482,1483,1484,1485,1486,1487,1488,1489,1490,1491,1492,1493,1494,1495,1496,1497,1498,1499,1500,1501,1502,1503,1504,1473,1474,1475,1476,1477,1478,1479,1480,1481,1482,1483,1484,1485,1486,1487,1488,
1537,1538,1539,1540,1541,1542,1543,1544,1545,1546,1547,1548,1549,1550,1551,1552,1553,1554,1555,1556,1557,1558,1559,1560,1561,1562,1563,1564,1565,1566,1567,1568,1537,1538,1539,1540,1541,1542,1543,1544,1545,1546,1547,1548,1549,1550,1551,1552,
1601,1602,1603,1604,1605,1606,1607,1608,1609,1610,1611,1612,1613,1614,1615,1616,1617,1618,1619,1620,1621,1622,1623,1624,1625,1626,1627,1628,1629,1630,1631,1632,1601,1602,1603,1604,1605,1606,1607,1608,1609,1610,1611,1612,1613,1614,1615,1616,
1665,1666,1667,1668,1669,1670,1671,1672,1673,1674,1675,1676,1677,1678,1679,1680,1681,1682,1683,1684,1685,1686,1687,1688,1689,1690,1691,1692,1693,1694,1695,1696,1665,1666,1667,1668,1669,1670,1671,1672,1673,1674,1675,1676,1677,1678,1679,1680,
1729,1730,1731,1732,1733,1734,1735,1736,1737,1738,1739,1740,1741,1742,1743,1744,1745,1746,1747,1748,1749,1750,1751,1752,1753,1754,1755,1756,1757,1758,1759,1760,1729,1730,1731,1732,1733,1734,1735,1736,1737,1738,1739,1740,1741,1742,1743,1744
</data>
 </layer>
 <layer id="2" name="ConsistentObject" width="48" height="12">
  <data encoding="csv">
0,0,0,0,2061,2062,0,0,0,0,0,0,0,0,0,0,0,0,0,0,0,0,2065,2066,2065,2066,0,0,0,0,0,0,0,0,0,0,2053,2054,2053,2054,0,0,0,0,0,0,0,0,
0,0,0,0,2125,2126,0,0,0,0,0,0,0,0,0,0,0,0,0,0,0,0,2129,2130,2129,2130,0,0,0,0,0,0,0,0,0,0,2117,2118,2117,2118,0,0,0,0,0,0,0,0,
4096,4096,0,0,2061,2062,0,0,2057,2058,0,0,0,0,0,0,0,0,0,0,0,0,2067,2068,2067,2068,0,0,0,0,2071,2072,2071,2072,0,0,0,0,0,0,0,0,0,0,0,0,4096,4096,
4096,4096,0,0,2125,2126,0,0,2121,2122,0,0,0,0,0,0,0,0,0,0,0,0,2131,2132,2131,2132,0,0,0,0,2135,2136,2135,2136,0,0,0,0,0,0,0,0,0,0,0,0,4096,4096,
0,0,0,0,2061,2062,0,0,2057,2058,0,0,0,0,2055,2056,2055,2056,2055,2056,0,0,2069,2070,2069,2070,0,0,0,0,0,0,0,0,0,0,2051,2052,2051,2052,0,0,2063,2064,0,0,0,0,
0,0,0,0,2125,2126,0,0,2121,2122,0,0,0,0,2119,2120,2119,2120,2119,2120,0,0,2133,2134,2133,2134,0,0,0,0,0,0,0,0,0,0,2115,2116,2115,2116,0,0,2127,2128,0,0,0,0,
0,0,0,0,0,0,0,0,2057,2058,0,0,0,0,2059,2060,0,0,0,0,0,0,0,0,0,0,0,0,0,0,2051,2052,2051,2052,0,0,0,0,0,0,0,0,2063,2064,0,0,0,0,
0,0,0,0,0,0,0,0,2121,2122,0,0,0,0,2123,2124,0,0,0,0,0,0,0,0,0,0,0,0,0,0,2115,2116,2115,2116,0,0,0,0,0,0,0,0,2127,2128,0,0,0,0,
4096,4096,0,0,0,0,0,0,0,0,0,0,0,0,2059,2060,0,0,2049,2050,2049,2050,2049,2050,0,0,0,0,0,0,0,0,0,0,0,0,2071,2072,2071,2072,0,0,0,0,0,0,4096,4096,
4096,4096,0,0,0,0,0,0,0,0,0,0,0,0,2123,2124,0,0,2113,2114,2113,2114,2113,2114,0,0,0,0,0,0,0,0,0,0,0,0,2135,2136,2135,2136,0,0,0,0,0,0,4096,4096,
0,0,0,0,0,0,0,0,0,0,0,0,0,0,0,0,0,0,0,0,0,0,0,0,0,0,0,0,0,0,2053,2054,2053,2054,0,0,0,0,0,0,0,0,0,0,0,0,0,0,
0,0,0,0,0,0,0,0,0,0,0,0,0,0,0,0,0,0,0,0,0,0,0,0,0,0,0,0,0,0,2117,2118,2117,2118,0,0,0,0,0,0,0,0,0,0,0,0,0,0
</data>
 </layer>
 <objectgroup id="3" name="ConsistentCollider">
  <object id="1" x="0" y="32" width="32" height="32"/>
  <object id="2" x="0" y="128" width="32" height="32"/>
  <object id="3" x="64" y="0" width="32" height="96"/>
  <object id="4" x="128" y="32" width="32" height="96"/>
  <object id="5" x="224" y="64" width="96" height="32"/>
  <object id="6" x="224" y="96" width="32" height="64"/>
  <object id="7" x="288" y="128" width="96" height="32"/>
  <object id="8" x="352" y="0" width="64" height="96"/>
  <object id="9" x="480" y="32" width="64" height="32"/>
  <object id="10" x="480" y="96" width="64" height="32"/>
  <object id="11" x="480" y="160" width="64" height="32"/>
  <object id="12" x="576" y="128" width="64" height="32"/>
  <object id="13" x="576" y="64" width="64" height="32"/>
  <object id="14" x="576" y="0" width="64" height="32"/>
  <object id="16" x="672" y="64" width="32" height="64"/>
  <object id="17" x="736" y="32" width="32" height="32"/>
  <object id="18" x="736" y="128" width="32" height="32">
   <properties>
    <property name="entranceX" type="float" value="2"/>
    <property name="entranceY" type="float" value="7"/>
    <property name="exitX" type="int" value="48"/>
    <property name="exitY" type="float" value="7"/>
   </properties>
  </object>
 </objectgroup>
 <objectgroup id="4" name="InitialObstacle">
  <object id="21" x="416" y="96" width="32" height="32"/>
  <object id="22" x="416" y="128" width="32" height="32"/>
  <object id="23" x="416" y="160" width="32" height="32"/>
 </objectgroup>
</map>
