<?xml version="1.0" encoding="UTF-8"?>
<map version="1.4" tiledversion="1.4.3" orientation="orthogonal" renderorder="right-down" width="24" height="6" tilewidth="32" tileheight="32" infinite="0" nextlayerid="4" nextobjectid="13">
 <properties>
  <property name="entranceX" type="float" value="1"/>
  <property name="entranceY" type="float" value="3.5"/>
  <property name="exitX" type="int" value="24"/>
  <property name="exitY" type="float" value="3.5"/>
 </properties>
 <tileset firstgid="1" source="XiaoChiBu_Tileset_Beta.tsx"/>
 <layer id="1" name="Background" width="24" height="6">
  <data encoding="csv">
1,1,1,1,1,1,1,1,1,1,1,1,1,1,1,1,1,1,1,1,1,1,1,1,
1,1,1,1,1,1,1,1,1,1,1,1,1,1,1,1,1,1,1,1,1,1,1,1,
1,1,1,1,1,1,1,1,1,1,1,1,1,1,1,1,1,1,1,1,1,1,1,1,
1,1,1,1,1,1,1,1,1,1,1,1,1,1,1,1,1,1,1,1,1,1,1,1,
1,1,1,1,1,1,1,1,1,1,1,1,1,1,1,1,1,1,1,1,1,1,1,1,
1,1,1,1,1,1,1,1,1,1,1,1,1,1,1,1,1,1,1,1,1,1,1,1
</data>
 </layer>
 <layer id="2" name="ConsistentObject" width="24" height="6">
  <data encoding="csv">
0,0,4,0,0,0,0,0,0,0,0,4,4,0,0,0,0,0,4,4,0,0,0,0,
0,0,4,0,4,0,0,0,0,0,0,4,4,0,0,4,4,0,0,0,0,0,0,0,
0,0,4,0,4,0,0,4,4,4,0,4,4,0,0,0,0,0,4,4,0,0,0,0,
0,0,0,0,4,0,0,4,0,0,0,0,0,0,0,4,4,0,0,0,0,0,0,0,
0,0,0,0,0,0,0,4,0,4,4,4,0,0,0,0,0,0,4,4,0,0,0,0,
0,0,0,0,0,0,0,0,0,0,0,0,0,0,0,4,4,0,0,0,0,0,0,0
</data>
 </layer>
 <objectgroup id="3" name="ConsistentCollider">
  <object id="1" x="64" y="0" width="32" height="96"/>
  <object id="2" x="128" y="32" width="32" height="96"/>
  <object id="3" x="224" y="64" width="96" height="32"/>
  <object id="4" x="224" y="96" width="32" height="64"/>
  <object id="5" x="288" y="128" width="96" height="32"/>
  <object id="6" x="352" y="0" width="64" height="96"/>
  <object id="7" x="480" y="32" width="64" height="32"/>
  <object id="8" x="480" y="96" width="64" height="32"/>
  <object id="9" x="480" y="160" width="64" height="32"/>
  <object id="10" x="576" y="0" width="64" height="32"/>
  <object id="11" x="576" y="64" width="64" height="32"/>
  <object id="12" x="576" y="128" width="64" height="32"/>
 </objectgroup>
</map>
